!!!OTL: 631. Mondscheinlied.
!!!ARE: Europa, Mitteleuropa, Deutschland, Bergisches Land
!!!SCT: E0631
!!!TXL: @@DE
!!!YEM: Copyright 1995, estate of Helmut Schaffrath.
**kern	**text
*ICvox	*
*M2/4	*
*k[]	*
*a:	*
!LO:TX:a:t=Einzeln.	!
!LO:TX:a:t=Mäßig bewegt.	!
!LO:TX:a:t=Bergiſch.	!
{8e	Ver-
=1	=1
8a	-ſtoh-
8b/	-len
8cc	geht
8a	der
=2	=2
8g#L	Mond
8aJ	.
4b;}	auf,
=3	=3
!LO:TX:a:t=Chor.	!
{4a	Blau,
4ee	blau
=4	=4
8dd	Blü-
8ee	-me-
8a;}	-lein!
{8a	Durch
=5	=5
8b	Sil-
8b	-ber-
8ee	-wölk-
8ee	-chen
=6	=6
8dd	geht
16eeL	ſein
16ccJ	.
8b	Lauf.
8r}	.
=7	=7
!LO:TX:a:t=Chor (rascher)	!
{8a	Ro-
16g#	-ſen
16a	im
8b	Thal,
8r	.
=8	=8
8a	Mä-
16g#	-del
16a	im
8b/	Saal,
8r}	.
=9	=9
!LO:TX:a:t=langsamer	!
{4a	o
8ee	ſchön-
8ee	-ſte
=10	=10
(8ccL	No-
16b	.
16ccJ)	.
8a}	-ſa!
==	==
!!!AGN: Liebes - Lied
!!!ONB: ESAC (Essen Associative Code) Database: ERK2
!!!AMT: simple duple
!!!AIN: vox
!!!EED: Helmut Schaffrath
!!!EEV: 1.0
!!!GTL: Liebeslieder [Neuere (aus dem 18. bis 19. Jahrh.) - Liebeslust]
!!!URL-scan: https://rosdok.uni-rostock.de/mcrviewer/recordIdentifier/rosdok_ppn745177662/iview2/phys_0445.iview2?x=65.86658254733675&y=848.197688718792&scale=0.7029437510502773&rotation=0&layout=singlePageLayout
!!!ENC: Anna Maria Matuszewska
!!!EEV: 2024/12/12
*-	*-
